X:4548
T:Duncan Gray. GS.109
M:4/4
L:1/8
Q:130
S:George Spencer m/s, Leeds,1831
R:Air
O:England
A:Leeds
N:"George Spencer Book Leeds 1831" written on the stave at the end of the
N:music
H:183
Z:vmp.Cherri Graeb
K:D major
Adcd ef c2 | d2 e>g fd d2 | Adcd ef c2 | d2 eg fd d2 :||:!
ga ag/f/ gg g2 | fg/f/ ed cB"or G in ms" A2 | ab/a/ ga/g/ fg/f/ e2 | d2
e>g fd d2
:||
